X:283
T: AUF BRUEDER LASST UNS LUSTIG LEBEN
N: F0497A
O: Europa, Mitteleuropa, Deutschland
R: Studenten - Lied
M: 3/4
L: 1/8
K: Eb
B2 | B4e2 | B4G2 | A2F2B2 | G2E2
B,2 | EEEEEE | E4
B2 | B4e2 | B4G2 | A2F2B2 | G2E2
F2 | GGGGGG | G4
B2 | e2d2c2 | B2A2G2 | A4B2 | c4
d2 | e2d2c2 | B4e2 | f2e2d2 | e4
B,2 | EEEEEE | E4
F2 | GGGGGG | G4
B2 | eeeeee | e4

